assets/icons/copy.svg

<svg width="16" height="16" viewBox="0 0 16 16" fill="none" xmlns="http://www.w3.org/2000/svg">
<path fill-rule="evenodd" clip-rule="evenodd" d="M11.25 10.4H11.75C13.4069 10.4 14.75 9.05688 14.75 7.40002V3.40002C14.75 1.74317 13.4069 0.400024 11.75 0.400024H7.75C6.09315 0.400024 4.75 1.74317 4.75 3.40002V5.60002H4.25C2.59315 5.60002 1.25 6.94317 1.25 8.60002V12.6C1.25 14.2569 2.59315 15.6 4.25 15.6H8.25C9.90685 15.6 11.25 14.2569 11.25 12.6V10.4ZM7.75 2.40002C7.19772 2.40002 6.75 2.84774 6.75 3.40002V5.60002H8.25C9.83965 5.60002 11.1405 6.83642 11.2434 8.40002H11.75C12.3023 8.40002 12.75 7.95231 12.75 7.40002V3.40002C12.75 2.84774 12.3023 2.40002 11.75 2.40002H7.75ZM4.25 7.60002C3.69772 7.60002 3.25 8.04774 3.25 8.60002V12.6C3.25 13.1523 3.69772 13.6 4.25 13.6H8.25C8.80228 13.6 9.25 13.1523 9.25 12.6V8.60002C9.25 8.04774 8.80228 7.60002 8.25 7.60002H4.25Z" fill="#494369"/>
</svg>

<svg xmlns="http://www.w3.org/2000/svg" width="16" height="16" fill="none" viewBox="0 0 16 16"><path fill="#494369" fill-rule="evenodd" d="M11.25 10.4h.5a3 3 0 0 0 3-3v-4a3 3 0 0 0-3-3h-4a3 3 0 0 0-3 3v2.2h-.5a3 3 0 0 0-3 3v4a3 3 0 0 0 3 3h4a3 3 0 0 0 3-3zm-3.5-8a1 1 0 0 0-1 1v2.2h1.5a3 3 0 0 1 2.993 2.8h.507a1 1 0 0 0 1-1v-4a1 1 0 0 0-1-1zm-3.5 5.2a1 1 0 0 0-1 1v4a1 1 0 0 0 1 1h4a1 1 0 0 0 1-1v-4a1 1 0 0 0-1-1z" clip-rule="evenodd"/></svg>
